src/assets/logos/team_liquid.svg

<svg
   viewBox="0 0 257.25977 292.72657"
   version="1.1"
   id="svg5"
   xmlns="http://www.w3.org/2000/svg"
   xmlns:svg="http://www.w3.org/2000/svg">
  <g
     id="layer1"
     transform="translate(-94.777344,48.757812)">
    <path
       id="background"
       class="background"
       d="M 223.4082,-48.757812 94.777344,-4.4199219 V 47.458984 c 0,82.832876 1.900489,125.891296 46.564456,156.812496 2.96163,2.03916 6.13794,4.05859 9.44922,6.04102 2.98095,1.78467 6.07726,3.54373 9.23437,5.26172 5.67947,3.09057 11.57439,6.06178 17.35547,8.83203 4.62604,2.21677 9.18793,4.31013 13.52539,6.23828 8.67314,3.85551 16.46424,7.06059 22.08398,9.30274 5.60423,2.23595 2.21827,0.98437 9.10547,3.53515 l 1.3125,0.48633 1.3125,-0.48633 c 6.88695,-2.55078 3.50144,-1.2992 9.10547,-3.53515 5.61956,-2.24215 13.40915,-5.44723 22.08203,-9.30274 4.33733,-1.92815 8.90142,-4.02151 13.52735,-6.23828 5.78093,-2.77025 11.67414,-5.74146 17.35351,-8.83203 3.15706,-1.71799 6.25346,-3.47706 9.23438,-5.26172 3.31123,-1.98243 6.48743,-4.00222 9.45703,-6.04688 44.65599,-30.91569 46.55664,-73.97376 46.55664,-156.806636 V -4.4199219 Z"
      />
    <path
       id="logo-path"
       class="primary"
       d="M 27.100158,0.70002236 0.70002236,9.7999001 V 20.199878 c 0,17.499983 0.40007664,26.200042 9.50006764,32.500036 6.099994,4.199995 16.900068,8.199967 16.900068,8.199967 0,0 10.799661,-3.999972 16.899655,-8.199967 C 53.099804,46.39992 53.49988,37.699861 53.49988,20.199878 V 9.7999001 Z M 28.600147,3.9998328 50.900092,11.50019 v 9.399711 c 0,15.79984 -0.400237,23.700173 -8.600157,29.400113 L 33.399946,39.000125 c -6.29994,-2.39998 -3.999833,-12.100269 -3.999833,-12.100269 -0.2,3.69997 1.899766,6.200257 1.899766,6.200257 l 4.700268,1.899766 c 0,0 2.099844,3.699976 2.499844,5.999956 0.79999,0.39999 3.29981,0.100357 3.29981,0.100357 l -2.199598,-3.600056 4.599911,2.599788 3.199866,-3.7 -6.299788,-12.1998 c -0.4,-1.49998 0,-3.200279 0,-3.200279 -0.5,-0.2 -8.500213,-5.799654 -8.500213,-5.799654 4.49996,-3.79997 1.300101,-7.500358 1.300101,-7.500358 -2.39998,2.69997 -5.100235,5.500021 -5.500235,5.900011 -0.99999,-3.39996 -0.699688,-6.8000392 0.200302,-9.6000112 z m -6.300202,1.1002121 c 0.7,3.6999741 1.700208,7.1000881 2.600201,9.5000671 -0.999993,0.4 -2.000342,0.999878 -3.100335,1.699878 -1.399986,-2.299986 -3.299862,-5.700151 -4.699855,-9.4001236 z M 11.700079,8.8000451 c 2.299982,3.7999759 5.300012,7.3000799 7.4,9.5000679 -0.799994,0.699994 -1.599905,1.499961 -2.399899,2.299955 C 13.700198,18.50008 9.1000475,14.900144 5.8000673,10.800168 Z M 3.2998104,16.900068 c 3.7999886,2.899991 8.4001996,5.099791 11.5001906,6.299788 -0.6,0.899997 -1.199936,1.900037 -1.599933,2.900034 -2.599994,-0.4 -6.3002684,-1.199794 -9.9002576,-2.599788 v -2.3999 z m 32.4000906,4.799799 2.100068,1.400045 0.999855,1.200156 c 0,0 -1.399774,0.4 -1.899766,0 -0.5,-0.399992 -1.200157,-2.600201 -1.200157,-2.600201 z M 3.4001676,28.999923 c 3.1999936,0.4 6.1998044,0.400246 8.4997994,0.300246 -0.399998,1.099998 -0.599968,2.299701 -0.799966,3.499699 -1.899997,0.499998 -4.6000064,1.100045 -7.4000008,1.400045 -0.1999996,-1.599998 -0.1998328,-3.299992 -0.2998326,-5.19999 z m 39.2000134,6.0999 1.299687,1.000268 1.499989,0.600078 -2.099654,0.09994 z m -31.90037,1.700291 c 0,1.39999 0.100301,2.800083 0.200301,4.300078 -1.2999925,0.999995 -2.9002769,2.09982 -4.7002679,3.29981 -0.799996,-1.49999 -1.3998235,-3.10011 -1.7998215,-5.0001 2.399988,-0.8 4.5997959,-1.799793 6.2997884,-2.599788 z m 1.100212,9.199822 c 0.499996,1.699992 0.999881,3.600186 1.699877,5.600178 -0.599996,-0.399996 -1.199881,-0.700212 -1.699877,-1.100212 -0.799996,-0.599996 -1.599959,-1.299769 -2.2999555,-1.899765 0.8999965,-0.9 1.6999595,-1.800205 2.2999555,-2.600201 z"
       transform="matrix(4.7292016,0,0,4.7292016,95.245883,-48.070629)"
       style="display:inline" />
  </g>
</svg>

<svg
   viewBox="0 0 255.84981 291.31882"
   version="1.1"
   id="svg5">
  <g
     id="layer1"
     transform="translate(-95.245883,48.070629)">
    <path
       d="m 104.60016,2.375634 116.59434,-40.089745 119.60107,41.42607 -0.33408,116.928421 -16.0359,48.44178 -16.70406,19.37671 -83.18622,47.10545 -89.53376,-45.76913 -22.71753,-39.0875 -8.35203,-59.132369 z"
       id="background" class="background" />
    <path
       id="logo-path"
       class="primary"
       d="M 27.100158 0.70002236 L 0.70002236 9.7999001 L 0.70002236 20.199878 C 0.70002236 37.699861 1.100099 46.39992 10.20009 52.699914 C 16.300084 56.899909 27.100158 60.899881 27.100158 60.899881 C 27.100158 60.899881 37.899819 56.899909 43.999813 52.699914 C 53.099804 46.39992 53.49988 37.699861 53.49988 20.199878 L 53.49988 9.7999001 L 27.100158 0.70002236 z M 28.600147 3.9998328 L 50.900092 11.50019 L 50.900092 20.899901 C 50.900092 36.699741 50.499855 44.600074 42.299935 50.300014 L 33.399946 39.000125 C 27.100006 36.600145 29.400113 26.899856 29.400113 26.899856 C 29.200113 30.599826 31.299879 33.100113 31.299879 33.100113 L 36.000147 34.999879 C 36.000147 34.999879 38.099991 38.699855 38.499991 40.999835 C 39.299981 41.399825 41.799801 41.100192 41.799801 41.100192 L 39.600203 37.500136 L 44.200114 40.099924 L 47.39998 36.399924 L 41.100192 24.200124 C 40.700192 22.700144 41.100192 20.999845 41.100192 20.999845 C 40.600192 20.799845 32.599979 15.200191 32.599979 15.200191 C 37.099939 11.400221 33.90008 7.699833 33.90008 7.699833 C 31.5001 10.399803 28.799845 13.199854 28.399845 13.599844 C 27.399855 10.199884 27.700157 6.7998048 28.600147 3.9998328 z M 22.299945 5.1000449 C 22.999945 8.800019 24.000153 12.200133 24.900146 14.600112 C 23.900153 15.000112 22.899804 15.59999 21.799811 16.29999 C 20.399825 14.000004 18.499949 10.599839 17.099956 6.8998664 L 22.299945 5.1000449 z M 11.700079 8.8000451 C 14.000061 12.600021 17.000091 16.100125 19.100079 18.300113 C 18.300085 19.000107 17.500174 19.800074 16.70018 20.600068 C 13.700198 18.50008 9.1000475 14.900144 5.8000673 10.800168 L 11.700079 8.8000451 z M 3.2998104 16.900068 C 7.099799 19.800059 11.70001 21.999859 14.800001 23.199856 C 14.200001 24.099853 13.600065 25.099893 13.200068 26.09989 C 10.600074 25.69989 6.8997996 24.900096 3.2998104 23.500102 L 3.2998104 21.100202 L 3.2998104 16.900068 z M 35.699901 21.699867 L 37.799969 23.099912 L 38.799824 24.300068 C 38.799824 24.300068 37.40005 24.700068 36.900058 24.300068 C 36.400058 23.900076 35.699901 21.699867 35.699901 21.699867 z M 3.4001676 28.999923 C 6.6001612 29.399923 9.599972 29.400169 11.899967 29.300169 C 11.499969 30.400167 11.299999 31.59987 11.100001 32.799868 C 9.200004 33.299866 6.4999946 33.899913 3.7000002 34.199913 C 3.5000006 32.599915 3.5001674 30.899921 3.4001676 28.999923 z M 42.600181 35.099823 L 43.899868 36.100091 L 45.399857 36.700169 L 43.300203 36.800114 L 42.600181 35.099823 z M 10.699811 36.800114 C 10.699811 38.200104 10.800112 39.600197 10.900112 41.100192 C 9.6001195 42.100187 7.9998351 43.200012 6.1998441 44.400002 C 5.3998481 42.900012 4.8000206 41.299892 4.4000226 39.399902 C 6.8000106 38.599902 8.9998185 37.600109 10.699811 36.800114 z M 11.800023 45.999936 C 12.300019 47.699928 12.799904 49.600122 13.4999 51.600114 C 12.899904 51.200118 12.300019 50.899902 11.800023 50.499902 C 11.000027 49.899906 10.200064 49.200133 9.5000675 48.600137 C 10.400064 47.700137 11.200027 46.799932 11.800023 45.999936 z "
       transform="matrix(4.7292016,0,0,4.7292016,95.245883,-48.070629)" />
  </g>
</svg>
